papirus/22x22/apps/screencloud.svg

<svg height="22" width="22" xmlns="http://www.w3.org/2000/svg"><g transform="translate(-1 -1)"><path d="m10.5 3a7.5 7.5 0 0 0 -7.5 7.5 7.5 7.5 0 0 0  .2509765 1.908203c-1.3334593.6549-2.2509765 2.034469-2.2509765 3.642578v.898438c0 2.243946 1.7823847 4.050781 3.9960937 4.050781h14.0078123c2.213709 0 3.996094-1.806835 3.996094-4.050781v-.898438c0-1.700444-1.024326-3.147721-2.483399-3.75a4.5 4.5 0 0 0  .983399-2.800781 4.5 4.5 0 0 0 -4.5-4.5 4.5 4.5 0 0 0 -1.229492.1728515 7.5 7.5 0 0 0 -5.270508-2.1728515z" fill="#569cde"/><path d="m10.5 3a7.5 7.5 0 0 0 -7.5 7.5 7.5 7.5 0 0 0  .0107422.201172 7.5 7.5 0 0 1  7.4892578-7.201172 7.5 7.5 0 0 1  5.270508 2.1728515 4.5 4.5 0 0 1  1.229492-.1728515 4.5 4.5 0 0 1  4.489258 4.28125 4.5 4.5 0 0 0  .010742-.28125 4.5 4.5 0 0 0 -4.5-4.5 4.5 4.5 0 0 0 -1.229492.1728515 7.5 7.5 0 0 0 -5.270508-2.1728515zm10.280273 9.433594a4.5 4.5 0 0 1 -.263672.367187c1.459073.602279 2.483399 2.049556 2.483399 3.75v-.5c0-1.593772-.905483-2.955507-2.219727-3.617187zm-17.630859.03418c-1.2762189.674628-2.149414 2.017588-2.149414 3.583007v.5c0-1.608109.9175172-2.987678 2.2509765-3.642578a7.5 7.5 0 0 1 -.1015625-.440429z" fill="#fff" opacity=".2"/><path d="m21.489258 9.28125a4.5 4.5 0 0 1 -.972657 2.519531c.09153.03778.175709.08853.263672.132813a4.5 4.5 0 0 0  .719727-2.433594 4.5 4.5 0 0 0 -.010742-.21875zm-18.4785158.919922a7.5 7.5 0 0 0 -.0107422.298828 7.5 7.5 0 0 0  .149414 1.467774c.034803-.01839.066164-.04218.1015625-.05957a7.5 7.5 0 0 1 -.2402343-1.707032zm-2.0107422 6.248047v.5c0 2.243946 1.7823847 4.050781 3.9960937 4.050781h14.0078123c2.21371 0 3.996094-1.806835 3.996094-4.050781v-.5c0 2.243946-1.782384 4.050781-3.996094 4.050781h-14.0078123c-2.213709 0-3.9960937-1.806835-3.9960937-4.050781z" opacity=".3"/><path d="m12 7.5a6 6 0 0 0 -6 6 6 6 0 0 0  6 6 6 6 0 0 0  6-6 6 6 0 0 0 -6-6zm0 1.5a4.5 4.5 0 0 1 4.5 4.5 4.5 4.5 0 0 1 -4.5 4.5 4.5 4.5 0 0 1 -4.5-4.5 4.5 4.5 0 0 1  4.5-4.5z" opacity=".2"/><path d="m12 7a6 6 0 0 0 -6 6 6 6 0 0 0  6 6 6 6 0 0 0  6-6 6 6 0 0 0 -6-6zm0 1.5a4.5 4.5 0 0 1 4.5 4.5 4.5 4.5 0 0 1 -4.5 4.5 4.5 4.5 0 0 1 -4.5-4.5 4.5 4.5 0 0 1  4.5-4.5z" fill="#aaceee"/><path d="m12 10.5a3 3 0 0 0 -3 3 3 3 0 0 0  3 3 3 3 0 0 0  3-3 3 3 0 0 0 -3-3z" opacity=".2"/><path d="m12 10a3 3 0 0 0 -3 3 3 3 0 0 0  3 3 3 3 0 0 0  3-3 3 3 0 0 0 -3-3z" fill="#fff"/><circle cx="7.5" cy="7" opacity=".2" r="1.5"/><circle cx="7.5" cy="6.5" fill="#fff" r="1.5"/></g></svg>

<?xml version="1.0" encoding="UTF-8" standalone="no"?>
<!-- Created with Inkscape (http://www.inkscape.org/) -->

<svg
   xmlns:dc="http://purl.org/dc/elements/1.1/"
   xmlns:cc="http://creativecommons.org/ns#"
   xmlns:rdf="http://www.w3.org/1999/02/22-rdf-syntax-ns#"
   xmlns:svg="http://www.w3.org/2000/svg"
   xmlns="http://www.w3.org/2000/svg"
   xmlns:sodipodi="http://sodipodi.sourceforge.net/DTD/sodipodi-0.dtd"
   xmlns:inkscape="http://www.inkscape.org/namespaces/inkscape"
   id="svg2817"
   height="22"
   width="22"
   version="1.0"
   inkscape:version="0.91 r13725"
   sodipodi:docname="screencloud.svg">
  <defs
     id="defs13" />
  <sodipodi:namedview
     pagecolor="#ffffff"
     bordercolor="#666666"
     borderopacity="1"
     objecttolerance="10"
     gridtolerance="10"
     guidetolerance="10"
     inkscape:pageopacity="0"
     inkscape:pageshadow="2"
     inkscape:window-width="1600"
     inkscape:window-height="849"
     id="namedview11"
     showgrid="false"
     inkscape:zoom="1"
     inkscape:cx="13.174455"
     inkscape:cy="10.695844"
     inkscape:window-x="0"
     inkscape:window-y="0"
     inkscape:window-maximized="1"
     inkscape:current-layer="svg2817" />
  <metadata
     id="metadata57">
    <rdf:RDF>
      <cc:Work
         rdf:about="">
        <dc:format>image/svg+xml</dc:format>
        <dc:type
           rdf:resource="http://purl.org/dc/dcmitype/StillImage" />
        <dc:title></dc:title>
      </cc:Work>
    </rdf:RDF>
  </metadata>
  <g
     id="g4234"
     transform="translate(-1,-1)">
    <path
       inkscape:connector-curvature="0"
       id="rect4141"
       d="M 10.5,3 A 7.5,7.5 0 0 0 3,10.5 7.5,7.5 0 0 0 3.2509765,12.408203 C 1.9175172,13.063103 1,14.442672 1,16.050781 l 0,0.898438 C 1,19.193165 2.7823847,21 4.9960937,21 L 19.003906,21 C 21.217615,21 23,19.193165 23,16.949219 l 0,-0.898438 c 0,-1.700444 -1.024326,-3.147721 -2.483399,-3.75 A 4.5,4.5 0 0 0 21.5,9.5 4.5,4.5 0 0 0 17,5 4.5,4.5 0 0 0 15.770508,5.1728515 7.5,7.5 0 0 0 10.5,3 Z"
       style="opacity:1;fill:#569cde;fill-opacity:1;stroke:none;stroke-width:2;stroke-linecap:round;stroke-linejoin:round;stroke-miterlimit:4;stroke-dasharray:none;stroke-opacity:1" />
    <path
       id="path4148"
       d="M 10.5,3 A 7.5,7.5 0 0 0 3,10.5 7.5,7.5 0 0 0 3.0107422,10.701172 7.5,7.5 0 0 1 10.5,3.5 7.5,7.5 0 0 1 15.770508,5.6728515 4.5,4.5 0 0 1 17,5.5 4.5,4.5 0 0 1 21.489258,9.78125 4.5,4.5 0 0 0 21.5,9.5 4.5,4.5 0 0 0 17,5 4.5,4.5 0 0 0 15.770508,5.1728515 7.5,7.5 0 0 0 10.5,3 Z m 10.280273,9.433594 a 4.5,4.5 0 0 1 -0.263672,0.367187 C 21.975674,13.40306 23,14.850337 23,16.550781 l 0,-0.5 c 0,-1.593772 -0.905483,-2.955507 -2.219727,-3.617187 z M 3.149414,12.467774 C 1.8731951,13.142402 1,14.485362 1,16.050781 l 0,0.5 C 1,14.942672 1.9175172,13.563103 3.2509765,12.908203 A 7.5,7.5 0 0 1 3.149414,12.467774 Z"
       style="opacity:0.2;fill:#ffffff;fill-opacity:1;stroke:none;stroke-width:2;stroke-linecap:round;stroke-linejoin:round;stroke-miterlimit:4;stroke-dasharray:none;stroke-opacity:1"
       inkscape:connector-curvature="0" />
    <path
       id="path4153"
       d="m 21.489258,9.28125 a 4.5,4.5 0 0 1 -0.972657,2.519531 c 0.09153,0.03778 0.175709,0.08853 0.263672,0.132813 A 4.5,4.5 0 0 0 21.5,9.5 4.5,4.5 0 0 0 21.489258,9.28125 Z M 3.0107422,10.201172 A 7.5,7.5 0 0 0 3,10.5 7.5,7.5 0 0 0 3.149414,11.967774 c 0.034803,-0.01839 0.066164,-0.04218 0.1015625,-0.05957 A 7.5,7.5 0 0 1 3.0107422,10.201172 Z M 1,16.449219 l 0,0.5 C 1,19.193165 2.7823847,21 4.9960937,21 L 19.003906,21 C 21.217616,21 23,19.193165 23,16.949219 l 0,-0.5 C 23,18.693165 21.217616,20.5 19.003906,20.5 l -14.0078123,0 C 2.7823847,20.5 1,18.693165 1,16.449219 Z"
       style="opacity:0.3;fill:#000000;fill-opacity:1;stroke:none;stroke-width:2;stroke-linecap:round;stroke-linejoin:round;stroke-miterlimit:4;stroke-dasharray:none;stroke-opacity:1"
       inkscape:connector-curvature="0" />
    <path
       inkscape:connector-curvature="0"
       style="opacity:0.2;fill:#000000;fill-opacity:1;stroke:none;stroke-width:2;stroke-linecap:round;stroke-linejoin:round;stroke-miterlimit:4;stroke-dasharray:none;stroke-opacity:1"
       d="m 12,7.5 a 6,6 0 0 0 -6,6 6,6 0 0 0 6,6 6,6 0 0 0 6,-6 6,6 0 0 0 -6,-6 z M 12,9 A 4.5,4.5 0 0 1 16.5,13.5 4.5,4.5 0 0 1 12,18 4.5,4.5 0 0 1 7.5,13.5 4.5,4.5 0 0 1 12,9 Z"
       id="path4170" />
    <path
       id="path4167"
       d="m 12,7 a 6,6 0 0 0 -6,6 6,6 0 0 0 6,6 6,6 0 0 0 6,-6 6,6 0 0 0 -6,-6 z m 0,1.5 A 4.5,4.5 0 0 1 16.5,13 4.5,4.5 0 0 1 12,17.5 4.5,4.5 0 0 1 7.5,13 4.5,4.5 0 0 1 12,8.5 Z"
       style="opacity:1;fill:#aaceee;fill-opacity:1;stroke:none;stroke-width:2;stroke-linecap:round;stroke-linejoin:round;stroke-miterlimit:4;stroke-dasharray:none;stroke-opacity:1"
       inkscape:connector-curvature="0" />
    <path
       inkscape:connector-curvature="0"
       style="opacity:0.2;fill:#000000;fill-opacity:1;stroke:none;stroke-width:2;stroke-linecap:round;stroke-linejoin:round;stroke-miterlimit:4;stroke-dasharray:none;stroke-opacity:1"
       d="m 12,10.5 a 3,3 0 0 0 -3,3 3,3 0 0 0 3,3 3,3 0 0 0 3,-3 3,3 0 0 0 -3,-3 z"
       id="path4172" />
    <path
       id="path4139"
       d="m 12,10 a 3,3 0 0 0 -3,3 3,3 0 0 0 3,3 3,3 0 0 0 3,-3 3,3 0 0 0 -3,-3 z"
       style="opacity:1;fill:#ffffff;fill-opacity:1;stroke:none;stroke-width:2;stroke-linecap:round;stroke-linejoin:round;stroke-miterlimit:4;stroke-dasharray:none;stroke-opacity:1"
       inkscape:connector-curvature="0" />
    <circle
       style="opacity:0.2;fill:#000000;fill-opacity:1;stroke:none;stroke-width:2;stroke-linecap:round;stroke-linejoin:round;stroke-miterlimit:4;stroke-dasharray:none;stroke-opacity:1"
       id="circle4174"
       cx="7.5"
       cy="7"
       r="1.5" />
    <circle
       r="1.5"
       cy="6.5"
       cx="7.5"
       id="path4161"
       style="opacity:1;fill:#ffffff;fill-opacity:1;stroke:none;stroke-width:2;stroke-linecap:round;stroke-linejoin:round;stroke-miterlimit:4;stroke-dasharray:none;stroke-opacity:1" />
  </g>
</svg>
